X: 207
T:Mucking of Geordie's Byre
% Nottingham Music Database
S:Kevin Briggs, via EF
M:6/8
K:D
P:A
A|"D"ABA AFA|"D"d2e f2a|"G"g2e "D"f2d|"G"e2d Bcd|
"D"ABA AFA|"D"d2e f2g|"G"afd "A"efe|"Em""D"d3 "A7"d2:|
P:B
e/2f/2|"G"g2 g gab|"D"f2 f fga|"Em""C"e2e "A7"ede|"D"fed "G"Bcd|
"D"ABA AFA|"D"d2e f2g|"G"afd "A"efe|"Em""D"d3 "A7"d2:|<end>
<start>
